X:1
T:Hark! The Herald Angels Sing
T:For Recorder Ensemble
T:Felix Mendelssohn , 1840, ad. Arr. by Ezra Lesser
%%score 1 2 3 4
L:1/8
M:4/4
K:G
V:1 treble+8 nm="Soprano Recorder" snm="S. Rec."
V:2 treble nm="Alto Recorder" snm="A. Rec."
V:3 treble nm="Tenor Recorder" snm="T. Rec."
V:4 treble-8 nm="Bass Recorder" snm="B. Rec."
V:1
 D2 G2 G3 F | G2 B2 (B2 A2) | d2 d2 d3 c | B2 A2 B4 | D2 G2 G3 F | G2 B2 (B2 A2) | d2 A2 A3 F | %7
 F2 E2 D4 | d2 d2 d2 G2 | c2 B2 (B2 A2) | d2 d2 d2 G2 | c2 B2 (B2 A2) | e2 e2 e2 d2 | c2 B2 c4 | %14
 A2 Bc d3 G | G2 A2 B4 | e3 e e2 d2 | c2 B2 c4 |1 A2 Bc d3 G | G2 A2 G4 :|2 A2 Bc d3 G | G4 A4 | %22
 g8 |] %23
V:2
 B2 B2 B3 A | G2 d2 d4 | d2 d2 e3 e | d2 d2 d4 | B2 B2 B3 A | G2 G2 G4 | F2 A2 d3 A | A2 A2 F4 | %8
 B2 B2 d2 d2 | d2 d2 d4 | B2 B2 d2 d2 | d2 d2 d4 | e2 e2 c2 d2 | e2 e2 e4 | d2 c2 B3 B | B2 d2 d4 | %16
 e3 e c2 d2 | e2 e2 e4 |1 d2 c2 B3 B | B2 d2 B4 :|2 d2 c2 B3 B | B4 d4 | d8 |] %23
V:3
 G2 D2 D3 D | D2 G2 (G2 F2) | G2 G2 A3 A | G2 F2 G4 | G2 D2 D3 D | D2 D2 ^C4 | D2 E2 F3 D | %7
 D2 ^C2 D4 | D2 G2 G2 G2 | A2 G2 (G2 F2) | D2 G2 G2 G2 | A2 G2 (G2 F2) | G2 G2 G2 ^G2 | A2 ^G2 A4 | %14
 F2 F2 G3 D | E2 F2 G4 | G3 G G2 ^G2 | A2 ^G2 A4 |1 F2 F2 G3 D | E2 F2 D4 :|2 F2 F2 G3 D | E4 F4 | %22
 B8 |] %23
V:4
 G2 g2 g3 d | B2 G2 d4 | B2 B2 c3 c | d2 d2 g4 | G2 g2 g3 d | B2 G2 e4 | d2 ^c2 d3 d | F2 A2 d4 | %8
 g2 g2 b2 b2 | f2 g2 d4 | g2 g2 b2 b2 | f2 g2 d4 | c2 c2 c2 B2 | A2 e2 a4 | d2 d2 g3 g | e2 d2 g4 | %16
 c3 c c2 B2 | A2 e2 a4 |1 d2 d2 g3 g | e2 d2 g4 :|2 d2 d2 g3 g | e4 d4 | G8 |] %23

